X:243
T:Japan
C:David Grisman
N:
L:1/8
Q:1/4=220
M:4/4
K:F
z8 |: D"Dm"E FD "Em"EF GE | "F"FG AF "Em"GF EG |1 F"Dm"E DF "C"ED CE | "Am"DC A,2 A,4 :|2 "Dm"FE DF "A7"ED _DE | 
"Dm"D8 |: "Dm"Ac df d4 | "F"df cd A4 | df cd Ac AG | "A7"A6 Ac | "Dm"df cd Ac AG | 
"F"AG FA "C"GF EG | "Bb"FE DF "A7"ED _D2 | "Dm"D8 :|: D"Dm"E FD EF GE | "F"FG AF "Em"GF EG | 
|1 F"Dm"E DF "C"ED CE | "Am"DC A,2 A,4 :|2 "Dm"FE DF "A7"ED _DE | "Dm"D8 |: "Dm"Ac df d4 | 
"F"df cd A4 | df cd Ac AG | "A7"A6 Ac | "Dm"df cd Ac AG | "F"AG FA "C"GF EG | 
"Bb"FE DF "A7"ED _D2 | "Dm"D8 :| 
 

